app/assets/images/icons/google.svg

<svg xmlns="http://www.w3.org/2000/svg" width="32" height="32" fill="currentColor" fill-rule="evenodd" stroke-linejoin="round" stroke-miterlimit="1.414" aria-label="google" clip-rule="evenodd" preserveAspectRatio="xMidYMid meet" viewBox="0 0 32 32"><g><path d="M16,28c11,0 12,-1 12,-12c0,-11 -1,-12 -12,-12c-11,0 -12,1 -12,12c0,11 1,12 12,12Zm0.142,-10.558l0,-2.675l6.731,0.01c0.588,2.728 -0.735,8.223 -6.731,8.223c-3.944,0 -7.142,-3.134 -7.142,-7c0,-3.866 3.198,-7 7.142,-7c1.852,0 3.54,0.691 4.81,1.825l-2.01,1.97c-0.754,-0.633 -1.73,-1.017 -2.8,-1.017c-2.379,0 -4.308,1.89 -4.308,4.222c0,2.332 1.929,4.222 4.308,4.222c1.998,0 3.38,-1.159 3.888,-2.78l-3.888,0Z"/></g></svg>

<svg width="32" height="32" viewBox="0 0 32 32" fill="none" xmlns="http://www.w3.org/2000/svg">
<path fill-rule="evenodd" clip-rule="evenodd" d="M16 6C21.1 6 23.247 6.576 24.336 7.665C25.425 8.754 26 10.9 26 16C26 21.1 25.425 23.247 24.336 24.336C23.247 25.425 21.1 26 16 26C10.9 26 8.753 25.425 7.664 24.336C6.575 23.247 6 21.1 6 16C6 10.9 6.575 8.753 7.664 7.665C8.753 6.576 10.9 6 16 6ZM28 16C28 6 26 4 16 4C6 4 4 6 4 16C4 26 6 28 16 28C26 28 28 26 28 16Z" fill="currentColor"/>
<path fill-rule="evenodd" clip-rule="evenodd" d="M16.142 17.442V14.767L22.873 14.777C23.461 17.505 22.138 23 16.142 23C12.198 23 9 19.866 9 16C9 12.134 12.198 9 16.142 9C17.994 9 19.682 9.691 20.952 10.825L18.942 12.795C18.188 12.162 17.212 11.778 16.142 11.778C13.763 11.778 11.834 13.668 11.834 16C11.834 18.332 13.763 20.222 16.142 20.222C18.14 20.222 19.522 19.063 20.03 17.442H16.142Z" fill="currentColor"/>
</svg>
